;FLAVOR:Marlin
;TIME:4471
;Filament used: 2.89187m
;Layer height: 0.2
;Generated with Cura_SteamEngine 3.4.1
M82 ;absolute extrusion mode
G28 ;Home
M104 S220 ; set extruder temp
M140 S70 ; set bed temp
M190 S70 ; wait for bed temp
M109 S220 ; wait for extruder temp
G1 Z15.0 F6000 ;Move the platform down 15mm
;Prime the extruder
G92 E0
G1 F200 E3
G92 E0
M117 Printing @ 1MM.
G92 E0
G1 F2400 E-5
;LAYER_COUNT:361
;LAYER:0
M107
M204 S5000
M205 X30 Y30
G0 F3600 X116.935 Y102.148 Z0.2
M204 S500
M205 X20 Y20
;TYPE:WALL-INNER
G1 F2400 E0
G1 F1200 X118.838 Y102.582 E0.06492
G1 X120.639 Y103.288 E0.12926
G1 X122.317 Y104.258 E0.19372
G1 X123.84 Y105.472 E0.2585
G1 X125.16 Y106.894 E0.32303
G1 X126.259 Y108.507 E0.38795
G1 X127.099 Y110.252 E0.45237
G1 X127.669 Y112.097 E0.51659
G1 X127.961 Y114.037 E0.58184
G1 X127.961 Y115.963 E0.6459
G1 X127.669 Y117.903 E0.71115
G1 X127.099 Y119.748 E0.77538
G1 X126.259 Y121.493 E0.83979
G1 X125.16 Y123.106 E0.90471
G1 X123.84 Y124.528 E0.96924
G1 X122.317 Y125.742 E1.03402
G1 X120.639 Y126.712 E1.09849
G1 X118.838 Y127.418 E1.16283
G1 X116.935 Y127.852 E1.22775
G1 X115 Y127.998 E1.29229
G1 X113.065 Y127.852 E1.35683
G1 X111.162 Y127.418 E1.42175
G1 X109.361 Y126.712 E1.48609
G1 X107.683 Y125.742 E1.55055
G1 X106.16 Y124.528 E1.61533
G1 X104.84 Y123.106 E1.67986
G1 X103.741 Y121.493 E1.74478
G1 X102.901 Y119.748 E1.80919
G1 X102.331 Y117.903 E1.87342
G1 X102.039 Y115.963 E1.93867
G1 X102.039 Y114.037 E2.00273
G1 X102.331 Y112.097 E2.06798
G1 X102.901 Y110.252 E2.13221
G1 X103.741 Y108.507 E2.19662
G1 X104.84 Y106.894 E2.26154
G1 X106.16 Y105.472 E2.32607
G1 X107.683 Y104.258 E2.39085
G1 X109.361 Y103.288 E2.45532
G1 X111.162 Y102.582 E2.51966
G1 X113.065 Y102.148 E2.58457
G1 X115 Y102.002 E2.64912
G1 X116.935 Y102.148 E2.71366
M204 S5000
M205 X30 Y30
G0 F3600 X116.994 Y101.751
M204 S500
M205 X20 Y20
G1 F1200 X118.954 Y102.198 E2.78052
G1 X120.813 Y102.927 E2.84694
G1 X122.545 Y103.928 E2.91347
G1 X124.112 Y105.177 E2.98012
G1 X125.475 Y106.646 E3.04677
G1 X126.605 Y108.304 E3.11351
G1 X127.472 Y110.105 E3.17999
G1 X128.061 Y112.012 E3.24637
G1 X128.361 Y114.004 E3.31337
G1 X128.361 Y115.996 E3.37963
G1 X128.061 Y117.988 E3.44663
G1 X127.472 Y119.895 E3.51301
G1 X126.605 Y121.696 E3.57949
G1 X125.475 Y123.354 E3.64623
G1 X124.112 Y124.823 E3.71288
G1 X122.545 Y126.072 E3.77953
G1 X120.813 Y127.073 E3.84606
G1 X118.954 Y127.802 E3.91248
G1 X116.994 Y128.249 E3.97934
G1 X115 Y128.399 E4.04585
G1 X113.006 Y128.249 E4.11236
G1 X111.046 Y127.802 E4.17922
G1 X109.187 Y127.073 E4.24564
G1 X107.455 Y126.072 E4.31217
G1 X105.888 Y124.823 E4.37882
G1 X104.525 Y123.354 E4.44547
G1 X103.395 Y121.696 E4.51221
G1 X102.528 Y119.895 E4.57869
G1 X101.939 Y117.988 E4.64507
G1 X101.639 Y115.996 E4.71207
G1 X101.639 Y114.004 E4.77833
G1 X101.939 Y112.012 E4.84533
G1 X102.528 Y110.105 E4.91171
G1 X103.395 Y108.304 E4.97819
G1 X104.525 Y106.646 E5.04493
G1 X105.888 Y105.177 E5.11158
G1 X107.455 Y103.928 E5.17823
G1 X109.187 Y102.927 E5.24476
G1 X111.046 Y102.198 E5.31118
G1 X113.006 Y101.751 E5.37804
G1 X115 Y101.601 E5.44455
G1 X116.994 Y101.751 E5.51106
M204 S5000
M205 X30 Y30
G0 F3600 X117.053 Y101.354
M204 S500
M205 X20 Y20
;TYPE:WALL-OUTER
G1 F1200 X119.07 Y101.814 E5.57987
G1 X120.987 Y102.566 E5.64836
G1 X122.773 Y103.598 E5.71696
G1 X124.384 Y104.882 E5.78548
G1 X125.79 Y106.398 E5.85425
G1 X126.951 Y108.101 E5.9228
G1 X127.845 Y109.958 E5.99135
G1 X128.453 Y111.927 E6.05989
G1 X128.761 Y113.971 E6.12864
G1 X128.761 Y116.029 E6.19709
G1 X128.453 Y118.073 E6.26584
G1 X127.845 Y120.042 E6.33438
G1 X126.951 Y121.899 E6.40293
G1 X125.79 Y123.602 E6.47149
G1 X124.384 Y125.118 E6.54025
G1 X122.773 Y126.402 E6.60877
G1 X120.987 Y127.434 E6.67738
G1 X119.07 Y128.186 E6.74587
G1 X117.053 Y128.646 E6.81468
G1 X115 Y128.8 E6.88315
G1 X112.947 Y128.646 E6.95163
G1 X110.93 Y128.186 E7.02044
G1 X109.013 Y127.434 E7.08893
G1 X107.227 Y126.402 E7.15753
G1 X105.616 Y125.118 E7.22605
G1 X104.21 Y123.602 E7.29482
G1 X103.049 Y121.899 E7.36337
G1 X102.155 Y120.042 E7.43192
G1 X101.547 Y118.073 E7.50046
G1 X101.239 Y116.029 E7.56921
G1 X101.239 Y113.971 E7.63766
G1 X101.547 Y111.927 E7.70641
G1 X102.155 Y109.958 E7.77495
G1 X103.049 Y108.101 E7.8435
G1 X104.21 Y106.398 E7.91206
G1 X105.616 Y104.882 E7.98083
G1 X107.227 Y103.598 E8.04934
G1 X109.013 Y102.566 E8.11795
G1 X110.93 Y101.814 E8.18644
G1 X112.947 Y101.354 E8.25525
G1 X115 Y101.2 E8.32372
G1 X117.053 Y101.354 E8.3922
M204 S5000
M205 X30 Y30
G0 F3600 X117.248 Y101.398
G0 X117.136 Y101.885
G0 X116.873 Y102.534
M204 S500
M205 X20 Y20
;TYPE:SKIN
G1 F1200 X118.722 Y102.955 E8.45527
G1 X120.467 Y103.64 E8.51762
G1 X122.098 Y104.582 E8.58027
G1 X123.575 Y105.759 E8.64308
G1 X124.854 Y107.138 E8.70564
G1 X125.922 Y108.705 E8.76871
G1 X126.733 Y110.39 E8.83091
G1 X127.288 Y112.184 E8.89337
G1 X127.571 Y114.069 E8.95676
G1 X127.571 Y115.931 E9.01869
G1 X127.288 Y117.816 E9.08209
G1 X126.733 Y119.61 E9.14455
G1 X125.922 Y121.295 E9.20675
G1 X124.854 Y122.862 E9.26982
G1 X123.575 Y124.241 E9.33238
G1 X122.098 Y125.418 E9.39519
G1 X120.467 Y126.36 E9.45784
G1 X118.722 Y127.045 E9.52019
G1 X116.873 Y127.466 E9.58326
G1 X115 Y127.608 E9.64574
G1 X113.127 Y127.466 E9.70821
G1 X111.278 Y127.045 E9.77128
G1 X109.533 Y126.36 E9.83363
G1 X107.902 Y125.418 E9.89628
G1 X106.425 Y124.241 E9.95909
G1 X105.146 Y122.862 E10.02165
G1 X104.078 Y121.295 E10.08472
G1 X103.267 Y119.61 E10.14692
G1 X102.712 Y117.816 E10.20938
G1 X102.429 Y115.931 E10.27278
G1 X102.429 Y114.069 E10.33471
G1 X102.712 Y112.184 E10.3981
G1 X103.267 Y110.39 E10.46056
G1 X104.078 Y108.705 E10.52276
G1 X105.146 Y107.138 E10.58583
G1 X106.425 Y105.759 E10.64839
G1 X107.902 Y104.582 E10.7112
G1 X109.533 Y103.64 E10.77385
G1 X111.278 Y102.955 E10.8362
G1 X113.127 Y102.534 E10.89927
G1 X115 Y102.392 E10.96175
G1 X116.873 Y102.534 E11.02422
M204 S5000
M205 X30 Y30
G0 F3600 X123.325 Y105.789
M204 S500
M205 X20 Y20
G1 F1200 X123.766 Y106.23 E11.04497
M204 S5000
M205 X30 Y30
G0 F3600 X121.299 Y104.328
M204 S500
M205 X20 Y20
G1 F1200 X125.762 Y108.791 E11.25489
G1 X125.832 Y108.861
M204 S5000
M205 X30 Y30
G0 F3600 X126.289 Y109.884
M204 S500
M205 X20 Y20
G1 F1200 X120.09 Y103.685 E11.54647
G1 X120.02 Y103.615
M204 S5000
M205 X30 Y30
G0 F3600 X119.16 Y103.321
M204 S500
M205 X20 Y20
G1 F1200 X126.685 Y110.846 E11.90043
G1 X126.755 Y110.916
M204 S5000
M205 X30 Y30
G0 F3600 X126.939 Y111.665
M204 S500
M205 X20 Y20
G1 F1200 X118.323 Y103.049 E12.3057
G1 X118.253 Y102.979
M204 S5000
M205 X30 Y30
G0 F3600 X117.59 Y102.882
M204 S500
M205 X20 Y20
G1 F1200 X127.143 Y112.435 E12.75504
G1 X127.213 Y112.505
M204 S5000
M205 X30 Y30
G0 F3600 X127.243 Y113.101
M204 S500
M205 X20 Y20
G1 F1200 X116.857 Y102.715 E13.24357
G1 X116.787 Y102.645
M204 S5000
M205 X30 Y30
G0 F3600 X116.243 Y102.666
M204 S500
M205 X20 Y20
G1 F1200 X127.342 Y113.766 E13.76565
G1 X127.412 Y113.836
M204 S5000
M205 X30 Y30
G0 F3600 X127.39 Y114.379
M204 S500
M205 X20 Y20
G1 F1200 X115.631 Y102.62 E14.31876
G1 X115.561 Y102.55
M204 S5000
M205 X30 Y30
G0 F3600 X115.019 Y102.574
M204 S500
M205 X20 Y20
G1 F1200 X127.39 Y114.945 E14.90065
G1 X127.46 Y115.015
M204 S5000
M205 X30 Y30
G0 F3600 X127.39 Y115.51
M204 S500
M205 X20 Y20
G1 F1200 X114.49 Y102.611 E15.50741
G1 X114.42 Y102.541
M204 S5000
M205 X30 Y30
G0 F3600 X113.964 Y102.65
M204 S500
M205 X20 Y20
G1 F1200 X127.369 Y116.056 E16.13796
G1 X127.439 Y116.126
M204 S5000
M205 X30 Y30
G0 F3600 X127.296 Y116.548
M204 S500
M205 X20 Y20
G1 F1200 X113.438 Y102.69 E16.7898
G1 X113.368 Y102.62
M204 S5000
M205 X30 Y30
G0 F3600 X112.942 Y102.76
M204 S500
M205 X20 Y20
G1 F1200 X127.222 Y117.04 E17.46149
G1 X127.292 Y117.11
M204 S5000
M205 X30 Y30
G0 F3600 X127.149 Y117.532
M204 S500
M205 X20 Y20
G1 F1200 X112.482 Y102.865 E18.15138
G1 X112.412 Y102.795
M204 S5000
M205 X30 Y30
G0 F3600 X112.021 Y102.97
M204 S500
M205 X20 Y20
G1 F1200 X127.045 Y117.994 E18.85806
G1 X127.115 Y118.064
M204 S5000
M205 X30 Y30
G0 F3600 X126.911 Y118.426
M204 S500
M205 X20 Y20
G1 F1200 X111.56 Y103.075 E19.58012
G1 X111.49 Y103.005
M204 S5000
M205 X30 Y30
G0 F3600 X111.127 Y103.207
M204 S500
M205 X20 Y20
G1 F1200 X126.777 Y118.857 E20.31625
G1 X126.847 Y118.927
M204 S5000
M205 X30 Y30
G0 F3600 X126.643 Y119.289
M204 S500
M205 X20 Y20
G1 F1200 X110.72 Y103.366 E21.06522
G1 X110.65 Y103.296
M204 S5000
M205 X30 Y30
G0 F3600 X110.314 Y103.526
M204 S500
M205 X20 Y20
G1 F1200 X126.489 Y119.701 E21.82604
G1 X126.559 Y119.771
M204 S5000
M205 X30 Y30
G0 F3600 X126.305 Y120.082
M204 S500
M205 X20 Y20
G1 F1200 X109.907 Y103.685 E22.59733
G1 X109.837 Y103.615
M204 S5000
M205 X30 Y30
G0 F3600 X109.514 Y103.857
M204 S500
M205 X20 Y20
G1 F1200 X126.121 Y120.464 E23.37847
G1 X126.191 Y120.534
M204 S5000
M205 X30 Y30
G0 F3600 X125.937 Y120.846
M204 S500
M205 X20 Y20
G1 F1200 X109.156 Y104.064 E24.16782
G1 X109.086 Y103.994
M204 S5000
M205 X30 Y30
G0 F3600 X108.797 Y104.272
M204 S500
M205 X20 Y20
G1 F1200 X125.751 Y121.225 E24.96526
G1 X125.821 Y121.295
M204 S5000
M205 X30 Y30
G0 F3600 X125.522 Y121.562
M204 S500
M205 X20 Y20
G1 F1200 X108.438 Y104.478 E25.76884
G1 X108.368 Y104.408
M204 S5000
M205 X30 Y30
G0 F3600 X108.079 Y104.685
M204 S500
M205 X20 Y20
G1 F1200 X125.292 Y121.898 E26.57849
G1 X125.362 Y121.968
M204 S5000
M205 X30 Y30
G0 F3600 X125.063 Y122.234
M204 S500
M205 X20 Y20
G1 F1200 X107.756 Y104.927 E27.39256
G1 X107.686 Y104.857
M204 S5000
M205 X30 Y30
G0 F3600 X107.441 Y105.178
M204 S500
M205 X20 Y20
G1 F1200 X124.834 Y122.571 E28.21067
G1 X124.904 Y122.641
M204 S5000
M205 X30 Y30
G0 F3600 X124.584 Y122.887
M204 S500
M205 X20 Y20
G1 F1200 X107.125 Y105.428 E29.03189
G1 X107.055 Y105.358
M204 S5000
M205 X30 Y30
G0 F3600 X106.811 Y105.679
M204 S500
M205 X20 Y20
G1 F1200 X124.312 Y123.18 E29.85508
G1 X124.382 Y123.25
M204 S5000
M205 X30 Y30
G0 F3600 X124.039 Y123.474
M204 S500
M205 X20 Y20
G1 F1200 X106.503 Y105.937 E30.67995
G1 X106.433 Y105.867
M204 S5000
M205 X30 Y30
G0 F3600 X106.23 Y106.23
M204 S500
M205 X20 Y20
G1 F1200 X123.768 Y123.768 E31.50488
G1 X123.838 Y123.838
M204 S5000
M205 X30 Y30
G0 F3600 X123.496 Y124.061
M204 S500
M205 X20 Y20
G1 F1200 X105.959 Y106.524 E32.32977
G1 X105.889 Y106.454
M204 S5000
M205 X30 Y30
G0 F3600 X105.687 Y106.818
M204 S500
M205 X20 Y20
G1 F1200 X123.187 Y124.319 E33.15294
G1 X123.257 Y124.389
M204 S5000
M205 X30 Y30
G0 F3600 X122.873 Y124.57
M204 S500
M205 X20 Y20
G1 F1200 X105.414 Y107.111 E33.97415
G1 X105.344 Y107.041
M204 S5000
M205 X30 Y30
G0 F3600 X105.165 Y107.427
M204 S500
M205 X20 Y20
G1 F1200 X122.557 Y124.82 E34.79224
G1 X122.627 Y124.89
M204 S5000
M205 X30 Y30
G0 F3600 X122.243 Y125.071
M204 S500
M205 X20 Y20
G1 F1200 X104.936 Y107.764 E35.60631
G1 X104.866 Y107.694
M204 S5000
M205 X30 Y30
G0 F3600 X104.706 Y108.1
M204 S500
M205 X20 Y20
G1 F1200 X121.919 Y125.313 E36.41596
G1 X121.989 Y125.383
M204 S5000
M205 X30 Y30
G0 F3600 X121.56 Y125.52
M204 S500
M205 X20 Y20
G1 F1200 X104.477 Y108.436 E37.21951
G1 X104.407 Y108.366
M204 S5000
M205 X30 Y30
G0 F3600 X104.248 Y108.773
M204 S500
M205 X20 Y20
G1 F1200 X121.201 Y125.727 E38.01695
G1 X121.271 Y125.797
M204 S5000
M205 X30 Y30
G0 F3600 X120.843 Y125.934
M204 S500
M205 X20 Y20
G1 F1200 X104.061 Y109.152 E38.80633
G1 X103.991 Y109.082
M204 S5000
M205 X30 Y30
G0 F3600 X103.877 Y109.534
M204 S500
M205 X20 Y20
G1 F1200 X120.484 Y126.141 E39.58747
G1 X120.554 Y126.211
M204 S5000
M205 X30 Y30
G0 F3600 X120.091 Y126.314
M204 S500
M205 X20 Y20
G1 F1200 X103.693 Y109.916 E40.35878
G1 X103.623 Y109.846
M204 S5000
M205 X30 Y30
G0 F3600 X103.509 Y110.298
M204 S500
M205 X20 Y20
G1 F1200 X119.684 Y126.473 E41.11961
G1 X119.754 Y126.543
M204 S5000
M205 X30 Y30
G0 F3600 X119.278 Y126.632
M204 S500
M205 X20 Y20
G1 F1200 X103.355 Y110.709 E41.86857
G1 X103.285 Y110.639
M204 S5000
M205 X30 Y30
G0 F3600 X103.222 Y111.141
M204 S500
M205 X20 Y20
G1 F1200 X118.871 Y126.791 E42.60468
G1 X118.941 Y126.861
M204 S5000
M205 X30 Y30
G0 F3600 X118.438 Y126.923
M204 S500
M205 X20 Y20
G1 F1200 X103.087 Y111.572 E43.32674
G1 X103.017 Y111.502
M204 S5000
M205 X30 Y30
G0 F3600 X102.954 Y112.005
M204 S500
M205 X20 Y20
G1 F1200 X117.977 Y127.028 E44.03338
G1 X118.047 Y127.098
M204 S5000
M205 X30 Y30
G0 F3600 X117.516 Y127.133
M204 S500
M205 X20 Y20
G1 F1200 X102.85 Y112.466 E44.72325
G1 X102.78 Y112.396
M204 S5000
M205 X30 Y30
G0 F3600 X102.776 Y112.958
M204 S500
M205 X20 Y20
G1 F1200 X117.056 Y127.238 E45.39493
G1 X117.126 Y127.308
M204 S5000
M205 X30 Y30
G0 F3600 X116.56 Y127.308
M204 S500
M205 X20 Y20
G1 F1200 X102.703 Y113.451 E46.04672
G1 X102.633 Y113.381
M204 S5000
M205 X30 Y30
G0 F3600 X102.629 Y113.943
M204 S500
M205 X20 Y20
G1 F1200 X116.034 Y127.348 E46.67725
G1 X116.104 Y127.418
M204 S5000
M205 X30 Y30
G0 F3600 X115.508 Y127.388
M204 S500
M205 X20 Y20
G1 F1200 X102.608 Y114.488 E47.28403
G1 X102.538 Y114.418
M204 S5000
M205 X30 Y30
G0 F3600 X102.608 Y115.054
M204 S500
M205 X20 Y20
G1 F1200 X114.979 Y127.424 E47.8659
G1 X115.049 Y127.494
M204 S5000
M205 X30 Y30
G0 F3600 X114.368 Y127.378
M204 S500
M205 X20 Y20
G1 F1200 X102.608 Y115.619 E48.41903
G1 X102.538 Y115.549
M204 S5000
M205 X30 Y30
G0 F3600 X102.656 Y116.232
M204 S500
M205 X20 Y20
G1 F1200 X113.755 Y127.332 E48.94112
G1 X113.825 Y127.402
M204 S5000
M205 X30 Y30
G0 F3600 X113.141 Y127.283
M204 S500
M205 X20 Y20
G1 F1200 X102.756 Y116.898 E49.4296
G1 X102.686 Y116.828
M204 S5000
M205 X30 Y30
G0 F3600 X102.855 Y117.563
M204 S500
M205 X20 Y20
G1 F1200 X112.408 Y127.116 E49.87894
G1 X112.478 Y127.186
M204 S5000
M205 X30 Y30
G0 F3600 X111.676 Y126.949
M204 S500
M205 X20 Y20
G1 F1200 X103.06 Y118.333 E50.28421
G1 X102.99 Y118.263
M204 S5000
M205 X30 Y30
G0 F3600 X103.313 Y119.153
M204 S500
M205 X20 Y20
G1 F1200 X110.838 Y126.678 E50.63816
G1 X110.908 Y126.748
M204 S5000
M205 X30 Y30
G0 F3600 X109.909 Y126.314
M204 S500
M205 X20 Y20
G1 F1200 X103.709 Y120.114 E50.92979
G1 X103.639 Y120.044
M204 S5000
M205 X30 Y30
G0 F3600 X104.236 Y121.207
M204 S500
M205 X20 Y20
G1 F1200 X108.699 Y125.67 E51.13972
G1 X108.769 Y125.74
M204 S5000
M205 X30 Y30
G0 F3600 X106.673 Y124.209
M104 S205
M204 S500
M205 X20 Y20
G1 F1200 X106.232 Y123.769 E51.16044
M204 S5000
M205 X30 Y30
G0 F3600 X116.935 Y102.148
;TIME_ELAPSED:88.007632
;LAYER:1
M140 S70
M106 S229.5
G0 F5400 X116.935 Y102.148 Z0.4
M204 S500
M205 X20 Y20
;TYPE:WALL-INNER
G1 F1800 X118.838 Y102.582 E51.22536
G1 X120.639 Y103.288 E51.2897
G1 X122.317 Y104.258 E51.35416
G1 X123.84 Y105.472 E51.41894
G1 X125.16 Y106.894 E51.48347
G1 X126.259 Y108.507 E51.54839
G1 X127.099 Y110.252 E51.6128
G1 X127.669 Y112.097 E51.67703
G1 X127.961 Y114.037 E51.74228
G1 X127.961 Y115.963 E51.80634
G1 X127.669 Y117.903 E51.87159
G1 X127.099 Y119.748 E51.93582
G1 X126.259 Y121.493 E52.00023
G1 X125.16 Y123.106 E52.06515
G1 X123.84 Y124.528 E52.12968
G1 X122.317 Y125.742 E52.19446
G1 X120.639 Y126.712 E52.25893
G1 X118.838 Y127.418 E52.32327
G1 X116.935 Y127.852 E52.38818
G1 X115 Y127.998 E52.45273
G1 X113.065 Y127.852 E52.51727
G1 X111.162 Y127.418 E52.58219
G1 X109.361 Y126.712 E52.64653
G1 X107.683 Y125.742 E52.71099
G1 X106.16 Y124.528 E52.77577
G1 X104.84 Y123.106 E52.8403
G1 X103.741 Y121.493 E52.90522
G1 X102.901 Y119.748 E52.96963
G1 X102.331 Y117.903 E53.03386
G1 X102.039 Y115.963 E53.09911
G1 X102.039 Y114.037 E53.16317
G1 X102.331 Y112.097 E53.22842
G1 X102.901 Y110.252 E53.29265
G1 X103.741 Y108.507 E53.35706
G1 X104.84 Y106.894 E53.42198
G1 X106.16 Y105.472 E53.48651
G1 X107.683 Y104.258 E53.55129
G1 X109.361 Y103.288 E53.61575
G1 X111.162 Y102.582 E53.68009
G1 X113.065 Y102.148 E53.74501
G1 X115 Y102.002 E53.80955
G1 X116.935 Y102.148 E53.8741
M204 S5000
M205 X30 Y30
G0 F5400 X116.994 Y101.751
M204 S500
M205 X20 Y20
G1 F1800 X118.954 Y102.198 E53.94096
G1 X120.813 Y102.927 E54.00737
G1 X122.545 Y103.928 E54.07391
G1 X124.112 Y105.177 E54.14056
G1 X125.475 Y106.646 E54.20721
G1 X126.605 Y108.304 E54.27394
G1 X127.472 Y110.105 E54.34043
G1 X128.061 Y112.012 E54.40681
G1 X128.361 Y114.004 E54.47381
G1 X128.361 Y115.996 E54.54006
G1 X128.061 Y117.988 E54.60707
G1 X127.472 Y119.895 E54.67345
